X:2928
T:The marine's hymn
C:anon.
O:USA
R:March
Z:Transcribed by Frank Nordberg - http://www.musicaviva.com
F:http://abc.musicaviva.com/tunes/usa/the-marines-hymn.abc
M:C|
L:1/4
K:C
CE|G2G2|G2G2|G3c|G2EF|G2G2|FD3|C4-|C z:|cB|
A2F2|A2F2|G3A|G2cB|A2F2|Ac3|G4-|G z CE|
G2G2|G2G2|G3c|G2EF|G2G2|FD3|C4-|C z|]
W:
W:
W:  From Musica Viva - http://www.musicaviva.com
W:  the Internet center for free sheet music downloads.
